images_elementary_svg/cmd/pl/lc_underlinedouble.svg

<svg height="24" width="24" xmlns="http://www.w3.org/2000/svg" xmlns:xlink="http://www.w3.org/1999/xlink"><radialGradient id="a" cx="10.918949" cy="4.564843" gradientTransform="matrix(-1.551757 .03070916 -.03957393 -1.999701 28.043153 9.725415)" gradientUnits="userSpaceOnUse" r="5.094793" xlink:href="#c"/><linearGradient id="b" gradientTransform="matrix(1 0 0 .66667 1 9.9999)" gradientUnits="userSpaceOnUse" x1="12" x2="12" xlink:href="#c" y1="22"/><linearGradient id="c"><stop offset="0" stop-color="#555"/><stop offset="1" stop-color="#666"/></linearGradient><g transform="translate(0 -1)"><path d="m17.701242 6.4704239q0 1.0585072-.325694 2.0355909-.314063.9770836-1.046875 1.7331602-.732813.744445-1.942536 1.198091-1.19809.442014-2.966146.442014h-1.7447926v6.618578h-2.1635423v-17.0059078h4.2107649q1.558681 0 2.68698.3373264 1.128299.3256946 1.861112.9654517.732813.6281252 1.081771 1.558681.348958.9305559.348958 2.1170146zm-8.0260436 3.5710081h1.5005216q1.081771 0 1.884375-.1861113.814237-.1861111 1.337674-.5932293.53507-.4187501.802605-1.0701392.267534-.6630211.267534-1.6052088 0-1.6517367-.953819-2.4427091-.95382-.8026044-2.977779-.8026044h-1.8611116z" fill="url(#a)" stroke="#000" stroke-opacity=".6"/><path d="m7.5117188 1.4921875v1.5h4.2109372c1.039121 0 1.935301.1130064 2.6875.3378906.7522.2171298 1.372786.538339 1.861328.9648438.488542.4187501.84744.9382232 1.080078 1.5585937.154557.4121506.239141.875831.291016 1.3632813.02809-.2467953.05859-.4922759.05859-.7460938 0-.7909724-.116971-1.4968169-.34961-2.1171875-.232634-.6203705-.591532-1.1398436-1.080074-1.5585937-.488542-.4265048-1.109128-.747714-1.861328-.9648438-.752199-.2248842-1.648379-.3378906-2.6875-.3378906zm7.8984372 5.84375c-.043703.3127267-.107236.6033105-.208984.8554687-.178357.4342594-.446021.7911458-.802734 1.0703126-.348958.2714121-.795066.4696759-1.337891.59375-.535069.1240742-1.163585.1855472-1.884766.1855472h-1.4999998v1.5h1.4999998c.721181 0 1.349697-.06147 1.884766-.185547.542825-.124074.988933-.322338 1.337891-.59375.356713-.279167.624377-.636054.802734-1.0703128.178356-.442014.267578-.9773436.267578-1.6054687 0-.2676157-.02104-.5162778-.05859-.75z" fill="#ffe9fb" opacity=".2"/></g><g transform="translate(0 -3)"><path d="m2.5 22.333v1.3333h19v-1.3333z" fill="url(#b)"/><path d="m2.3921 22.392v1.2159h19.216v-1.2159z" fill="none" opacity=".61" stroke="#000" stroke-width=".78412"/><path d="m3 22.5v1h18v-1z" fill="#fff" opacity=".2"/></g><path d="m2.5 22.333v1.3333h19v-1.3333z" fill="url(#b)"/><path d="m2.3921 22.392v1.2159h19.216v-1.2159z" fill="none" opacity=".61" stroke="#000" stroke-width=".78412"/><path d="m3 22.5v1h18v-1z" fill="#fff" opacity=".2"/></svg>

<?xml version="1.0" encoding="UTF-8" standalone="no"?>
<svg
   xmlns:dc="http://purl.org/dc/elements/1.1/"
   xmlns:cc="http://creativecommons.org/ns#"
   xmlns:rdf="http://www.w3.org/1999/02/22-rdf-syntax-ns#"
   xmlns:svg="http://www.w3.org/2000/svg"
   xmlns="http://www.w3.org/2000/svg"
   xmlns:xlink="http://www.w3.org/1999/xlink"
   xmlns:sodipodi="http://sodipodi.sourceforge.net/DTD/sodipodi-0.dtd"
   xmlns:inkscape="http://www.inkscape.org/namespaces/inkscape"
   height="24"
   width="24"
   version="1.1"
   id="svg51"
   sodipodi:docname="lc_underlinedouble.svg"
   inkscape:version="0.92.4 (unknown)"
   inkscape:export-filename="/home/rizmut/Dokumen/Rizmut/Github/libreoffice-style-elementary/images_elementary/cmd/nl/lc_underlinedouble.png"
   inkscape:export-xdpi="96"
   inkscape:export-ydpi="96">
  <metadata
     id="metadata57">
    <rdf:RDF>
      <cc:Work
         rdf:about="">
        <dc:format>image/svg+xml</dc:format>
        <dc:type
           rdf:resource="http://purl.org/dc/dcmitype/StillImage" />
        <dc:title></dc:title>
      </cc:Work>
    </rdf:RDF>
  </metadata>
  <defs
     id="defs55">
    <radialGradient
       inkscape:collect="always"
       xlink:href="#a"
       id="radialGradient1120"
       cx="10.918949"
       cy="4.5648432"
       fx="10.918949"
       fy="4.5648432"
       r="5.0947933"
       gradientTransform="matrix(-1.551757,0.03070916,-0.03957393,-1.999701,28.043153,9.7254153)"
       gradientUnits="userSpaceOnUse" />
    <linearGradient
       id="b-9"
       gradientTransform="matrix(1,0,0,0.66667,1,9.9999)"
       gradientUnits="userSpaceOnUse"
       x1="12"
       x2="12"
       xlink:href="#linearGradient921"
       y1="22" />
    <linearGradient
       id="linearGradient921">
      <stop
         offset="0"
         stop-color="#555"
         id="stop2-1" />
      <stop
         offset="1"
         stop-color="#666"
         id="stop4-5" />
    </linearGradient>
    <linearGradient
       id="b-2"
       gradientTransform="matrix(1,0,0,0.66667,1,9.9999)"
       gradientUnits="userSpaceOnUse"
       x1="12"
       x2="12"
       xlink:href="#linearGradient921"
       y1="22" />
  </defs>
  <sodipodi:namedview
     pagecolor="#ffffff"
     bordercolor="#666666"
     borderopacity="1"
     objecttolerance="10"
     gridtolerance="10"
     guidetolerance="10"
     inkscape:pageopacity="0"
     inkscape:pageshadow="2"
     inkscape:window-width="1366"
     inkscape:window-height="714"
     id="namedview53"
     showgrid="true"
     inkscape:zoom="11.313709"
     inkscape:cx="-12.185073"
     inkscape:cy="15.026363"
     inkscape:window-x="0"
     inkscape:window-y="28"
     inkscape:window-maximized="1"
     inkscape:current-layer="svg51"
     inkscape:snap-global="false">
    <inkscape:grid
       type="xygrid"
       id="grid864" />
  </sodipodi:namedview>
  <linearGradient
     id="a">
    <stop
       offset="0"
       stop-color="#555"
       id="stop2" />
    <stop
       offset="1"
       stop-color="#666"
       id="stop4" />
  </linearGradient>
  <linearGradient
     id="b"
     gradientUnits="userSpaceOnUse"
     x1="13"
     x2="13"
     xlink:href="#a"
     y1="25"
     y2="3" />
  <linearGradient
     id="c">
    <stop
       offset="0"
       id="stop8" />
    <stop
       offset="1"
       stop-opacity="0"
       id="stop10" />
  </linearGradient>
  <linearGradient
     id="d">
    <stop
       offset="0"
       stop-opacity="0"
       id="stop13" />
    <stop
       offset=".5"
       id="stop15" />
    <stop
       offset="1"
       stop-opacity="0"
       id="stop17" />
  </linearGradient>
  <radialGradient
     id="e"
     cx="40"
     cy="43.5"
     gradientTransform="matrix(.87733142 0 0 .75 -17.142285 -11.625)"
     gradientUnits="userSpaceOnUse"
     r="2"
     xlink:href="#c" />
  <radialGradient
     id="f"
     cx="9"
     cy="43.5"
     gradientTransform="matrix(.87733142 0 0 .75 -1.350319 -11.625)"
     gradientUnits="userSpaceOnUse"
     r="2"
     xlink:href="#c" />
  <linearGradient
     id="g"
     gradientTransform="matrix(.87733142 0 0 1 -5.736976 -22.5)"
     gradientUnits="userSpaceOnUse"
     x1="25"
     x2="25"
     xlink:href="#d"
     y1="45"
     y2="42" />
  <radialGradient
     id="h"
     cx="40"
     cy="43.5"
     gradientTransform="matrix(1 0 0 .75 -20 -9.125)"
     gradientUnits="userSpaceOnUse"
     r="2"
     xlink:href="#c" />
  <radialGradient
     id="i"
     cx="9"
     cy="43.5"
     gradientTransform="matrix(1 0 0 .75 -6 -9.125)"
     gradientUnits="userSpaceOnUse"
     r="2"
     xlink:href="#c" />
  <linearGradient
     id="j"
     gradientUnits="userSpaceOnUse"
     x1="14"
     x2="14"
     xlink:href="#d"
     y1="25"
     y2="22" />
  <linearGradient
     id="k"
     gradientUnits="userSpaceOnUse"
     x1="12.046913"
     x2="11.445407"
     xlink:href="#a"
     y1="25.559875"
     y2="4.349593" />
  <g
     id="g879"
     transform="translate(0,-1)">
    <g
       aria-label="P"
       style="font-style:normal;font-weight:normal;font-size:23.82222939px;line-height:1.25;font-family:sans-serif;letter-spacing:0px;word-spacing:0px;fill:url(#radialGradient1120);fill-opacity:1;stroke:#000000;stroke-width:1;stroke-miterlimit:4;stroke-dasharray:none;stroke-opacity:0.6"
       id="text1112">
      <path
         d="m 17.701242,6.4704239 q 0,1.0585072 -0.325694,2.0355909 -0.314063,0.9770836 -1.046875,1.7331602 -0.732813,0.744445 -1.942536,1.198091 -1.19809,0.442014 -2.966146,0.442014 H 9.6751984 v 6.618578 H 7.5116561 V 1.4919502 h 4.2107649 q 1.558681,0 2.68698,0.3373264 1.128299,0.3256946 1.861112,0.9654517 0.732813,0.6281252 1.081771,1.558681 0.348958,0.9305559 0.348958,2.1170146 z M 9.6751984,10.041432 H 11.17572 q 1.081771,0 1.884375,-0.1861113 0.814237,-0.1861111 1.337674,-0.5932293 0.53507,-0.4187501 0.802605,-1.0701392 0.267534,-0.6630211 0.267534,-1.6052088 0,-1.6517367 -0.953819,-2.4427091 Q 13.560269,3.3414299 11.53631,3.3414299 H 9.6751984 Z"
         style="font-style:normal;font-variant:normal;font-weight:normal;font-stretch:normal;font-family:'Droid Sans';-inkscape-font-specification:'Droid Sans';fill:url(#radialGradient1120);fill-opacity:1;stroke:#000000;stroke-width:1;stroke-miterlimit:4;stroke-dasharray:none;stroke-opacity:0.6"
         id="path900" />
    </g>
    <path
       id="path1130"
       d="m 7.5117188,1.4921875 v 1.5 h 4.2109372 c 1.039121,0 1.935301,0.1130064 2.6875,0.3378906 0.7522,0.2171298 1.372786,0.538339 1.861328,0.9648438 0.488542,0.4187501 0.84744,0.9382232 1.080078,1.5585937 0.154557,0.4121506 0.239141,0.875831 0.291016,1.3632813 0.02809,-0.2467953 0.05859,-0.4922759 0.05859,-0.7460938 0,-0.7909724 -0.116971,-1.4968169 -0.34961,-2.1171875 C 17.118924,3.7331451 16.760026,3.213672 16.271484,2.7949219 15.782942,2.3684171 15.162356,2.0472079 14.410156,1.8300781 13.657957,1.6051939 12.761777,1.4921875 11.722656,1.4921875 Z m 7.8984372,5.84375 C 15.366453,7.6486642 15.30292,7.939248 15.201172,8.1914062 15.022815,8.6256656 14.755151,8.982552 14.398438,9.2617188 14.04948,9.5331309 13.603372,9.7313947 13.060547,9.8554688 12.525478,9.979543 11.896962,10.041016 11.175781,10.041016 H 9.6757812 v 1.5 h 1.4999998 c 0.721181,0 1.349697,-0.06147 1.884766,-0.185547 0.542825,-0.124074 0.988933,-0.322338 1.337891,-0.59375 0.356713,-0.279167 0.624377,-0.636054 0.802734,-1.0703128 0.178356,-0.442014 0.267578,-0.9773436 0.267578,-1.6054687 0,-0.2676157 -0.02104,-0.5162778 -0.05859,-0.75 z"
       style="font-style:normal;font-variant:normal;font-weight:normal;font-stretch:normal;font-size:23.82222939px;line-height:1.25;font-family:'Droid Sans';-inkscape-font-specification:'Droid Sans';letter-spacing:0px;word-spacing:0px;opacity:0.2;fill:#ffe9fb;fill-opacity:1;stroke:none;stroke-width:0.59555572;stroke-opacity:0.6"
       inkscape:connector-curvature="0" />
  </g>
  <g
     transform="translate(1.162529e-8,-3)"
     id="g59">
    <path
       style="fill:url(#b-2)"
       inkscape:connector-curvature="0"
       d="m 2.5,22.333 v 1.3333 h 19 V 22.333 Z"
       id="path53" />
    <path
       style="opacity:0.61000001;fill:none;stroke:#000000;stroke-width:0.78412002"
       inkscape:connector-curvature="0"
       d="m 2.3921,22.392 v 1.2159 h 19.216 V 22.392 Z"
       id="path55" />
    <path
       style="opacity:0.2;fill:#ffffff"
       inkscape:connector-curvature="0"
       d="m 3,22.5 v 1 h 18 v -1 z"
       id="path57" />
  </g>
  <g
     id="g863">
    <path
       id="path33"
       d="m 2.5,22.333 v 1.3333 h 19 V 22.333 Z"
       style="fill:url(#b-9)"
       inkscape:connector-curvature="0" />
    <path
       id="path35"
       d="m 2.3921,22.392 v 1.2159 h 19.216 V 22.392 Z"
       style="opacity:0.61000001;fill:none;stroke:#000000;stroke-width:0.78412002"
       inkscape:connector-curvature="0" />
    <path
       id="path37"
       d="m 3,22.5 v 1 h 18 v -1 z"
       style="opacity:0.2;fill:#ffffff"
       inkscape:connector-curvature="0" />
  </g>
</svg>
